X: 2153
T: BEN NEVIS
Q: "Strathspey."
R: Strathspey.
%R: strathspey
B: James Kerr "Merry Melodies" v.2 p.18 #153
Z: 2016 John Chambers <jc:trillian.mit.edu>
M: C
L: 1/16
K: D
uF2 |\
DDD2 (D3B) vA3vFuA3uB | DDD2 (D3B) vA3vFuE3uF |\
DDD2 (D3B) A3Bd3e | vfd3e3uf d3F E2 :|
uB2 |\
vAF3d3uF vAF3d3uF | AF3 dF3 BAGF E3uB |\
vAF3d3uF vA3vBud3ue | vfd3e3uf d3vF E2 :|

%%sep 1 1 500
%%sep 1 1 500

